X: 1
T: King Billy's March
M: 6/8
L: 1/8
R: jig
K: Dmaj
eAA BAA|eAA Bcd|eAA fed|BGG Bcd|eAA BAA|
eAA Bcd|faf gfe|1 dBG Bcd:|2 dBG BdB||
A3 ~a3|ged ~e3|A2A a2B|BAG BdB|A2A ~a3|
gef g2f|gba g2e|dBG Bcd:|
